icons/device/video-fill-slash.svg

<svg width="32" height="32" viewBox="0 0 32 32" fill="none" xmlns="http://www.w3.org/2000/svg">
<path fill-rule="evenodd" clip-rule="evenodd" d="M22.9643 24.3784L28.793 30.2071L30.2072 28.7929L3.20718 1.79288L1.79297 3.20709L4.58589 6.00002H4.00008C2.89551 6.00002 2.00008 6.89545 2.00008 8.00002V24C2.00008 25.1046 2.8955 26 4.00007 26H21.0001C21.9753 26 22.7874 25.3021 22.9643 24.3784ZM30.0003 22.5142C30.0003 23.0252 29.7099 23.4288 29.3161 23.6288L11.6873 6.00002H21.0001C22.1046 6.00002 23.0001 6.89545 23.0001 8.00002V12.0568L28.0236 8.46864C28.8509 7.87769 30.0001 8.46909 30.0001 9.4858L30.0003 22.5142Z" fill="black"/>
</svg>

<svg width="32" height="32" viewBox="0 0 32 32" xmlns="http://www.w3.org/2000/svg">
    <path fill-rule="evenodd" d="M22.964 24.378l5.829 5.83 1.414-1.415-27-27-1.414 1.414L4.586 6H4a2 2 0 00-2 2v16a2 2 0 002 2h17a2 2 0 001.964-1.622zM30 22.514c0 .511-.29.915-.684 1.115L11.687 6H21a2 2 0 012 2v4.057l5.024-3.588A1.25 1.25 0 0130 9.486v13.028z"/>
</svg>
